X:10
T:Agnes
B:Goulding and d'Almaine's Twenty-four Country Dances For the year 1826.
L:1/16
M:2/4
O:England
U:l = !accent!
U:w = !wedge!
Z:Richard Robinson 
%%Dancenotes:Lead down the middle, up again, right & left at top
%%TUNEURL: http://www.leeds.ac.uk/music/Info/RRTuneBk/gettune/00000dda.html
%%ID:00000dda
K:F
c4 (=Bcdc) | f4 (efgf) | a4 (gfed) | (d4 c2) F2 |\
G2A2B2=B2 | c2 lf4 (ed) | d2c4 E2 | F4 z2|] !\
fg |\
la2gf (ef)cA | (dc)wBwG (dc)wBwG | \
la2gf (ef)wcwA | (dc)wBwG (dc)wBwG |!\
agfe dcBA | GABc defg | a2gf efge | f2F2 F4 |]
\newpage
